X: 1164
T: Dublin Streets.
C:Ennis.
B:O'Neill's Music of Ireland
N:O'Neill's - 1164
Z:Transcribed by Stephen Foy (shf@access.digex.net)
Z:abc 1.6
M:9/8
R:slipjig
K:Em
E2 F G2 A BGE | ^D2 E F2 G AFD | E2 F G2 A BGE | dcB AF^D E2 :|
e2 f g2 a bge | fef ^def afd | e2 f g2 a bge | fed B^c^d e2 d |
e2 f g2 a bge | fef def afd | bag agf gfe | dcB AF^D E2 ||


